packages/storefront-lwc/src/assets/fonts/flags/1x1/cw.svg

<svg height="512" width="512" xmlns="http://www.w3.org/2000/svg" xmlns:xlink="http://www.w3.org/1999/xlink"><defs><path id="a" d="m0-1 .225.69h.725l-.586.43.225.69-.589-.427-.588.427.225-.692-.587-.428h.725z"/><clipPath id="b"><path d="m0 0h9000v9000h-9000z"/></clipPath></defs><g clip-path="url(#b)" transform="scale(.057)"><path d="m0 0h13500v9000h-13500z" fill="#002b7f"/><path d="m0 5625h13500v1125h-13500z" fill="#f9e814"/><g fill="#fff"><use height="9000" transform="scale(750)" width="13500" x="2" xlink:href="#a" y="2"/><use height="9000" transform="scale(1000)" width="13500" x="3" xlink:href="#a" y="3"/></g></g></svg>

<svg xmlns="http://www.w3.org/2000/svg" xmlns:xlink="http://www.w3.org/1999/xlink" height="512" width="512" id="flag-icon-css-cw">
  <defs>
    <path id="b" d="M0-1l.225.69H.95L.364.12l.225.69L0 .383-.588.81l.225-.692L-.95-.31h.725z"/>
    <clipPath id="a">
      <path fill-opacity=".67" d="M0 0h9000v9000H0z"/>
    </clipPath>
  </defs>
  <g clip-path="url(#a)" transform="scale(.057)">
    <path fill="#002b7f" d="M0 0h13500v9000H0z"/>
    <path fill="#f9e814" d="M0 5625h13500v1125H0z"/>
    <use xlink:href="#b" transform="scale(750)" height="9000" width="13500" y="2" x="2" fill="#fff"/>
    <use xlink:href="#b" transform="scale(1000)" height="9000" width="13500" y="3" x="3" fill="#fff"/>
  </g>
</svg>
